docs/img/cart/trash.svg

<svg width="24" height="22" viewBox="0 0 24 22" fill="none" xmlns="http://www.w3.org/2000/svg">
    <path fill-rule="evenodd" clip-rule="evenodd"
          d="M3.75 4.8125V17.875C3.75 18.7866 4.14525 19.6611 4.848 20.306C5.5515 20.9502 6.5055 21.3125 7.5 21.3125C10.1145 21.3125 13.8855 21.3125 16.5 21.3125C17.4945 21.3125 18.4485 20.9502 19.152 20.306C19.8547 19.6611 20.25 18.7866 20.25 17.875V4.8125H22.5C22.914 4.8125 23.25 4.5045 23.25 4.125C23.25 3.7455 22.914 3.4375 22.5 3.4375H1.5C1.086 3.4375 0.75 3.7455 0.75 4.125C0.75 4.5045 1.086 4.8125 1.5 4.8125H3.75ZM18.75 4.8125V17.875C18.75 18.4223 18.513 18.9468 18.0908 19.3332C17.6693 19.7203 17.097 19.9375 16.5 19.9375C13.8855 19.9375 10.1145 19.9375 7.5 19.9375C6.903 19.9375 6.33075 19.7203 5.90925 19.3332C5.487 18.9468 5.25 18.4223 5.25 17.875V4.8125H18.75Z"
          fill="#8a8a8a" stroke-width="2"/>
    <path fill-rule="evenodd" clip-rule="evenodd"
          d="M8.25 2.0625H15.75C16.164 2.0625 16.5 1.7545 16.5 1.375C16.5 0.9955 16.164 0.6875 15.75 0.6875H8.25C7.836 0.6875 7.5 0.9955 7.5 1.375C7.5 1.7545 7.836 2.0625 8.25 2.0625Z"
          fill="#8a8a8a"/>
    <path fill-rule="evenodd" clip-rule="evenodd"
          d="M9 8.25V16.5C9 16.8795 9.336 17.1875 9.75 17.1875C10.164 17.1875 10.5 16.8795 10.5 16.5V8.25C10.5 7.8705 10.164 7.5625 9.75 7.5625C9.336 7.5625 9 7.8705 9 8.25Z"
          fill="#8a8a8a"/>
    <path fill-rule="evenodd" clip-rule="evenodd"
          d="M13.5 8.25V16.5C13.5 16.8795 13.836 17.1875 14.25 17.1875C14.664 17.1875 15 16.8795 15 16.5V8.25C15 7.8705 14.664 7.5625 14.25 7.5625C13.836 7.5625 13.5 7.8705 13.5 8.25Z"
          fill="#8a8a8a"/>
</svg>

<svg width="24" height="22" fill="none" xmlns="http://www.w3.org/2000/svg"><path fill-rule="evenodd" clip-rule="evenodd" d="M3.75 4.813v13.062c0 .912.395 1.786 1.098 2.431A3.933 3.933 0 007.5 21.312h9c.994 0 1.948-.362 2.652-1.006.703-.645 1.098-1.52 1.098-2.431V4.812h2.25c.414 0 .75-.308.75-.687 0-.38-.336-.688-.75-.688h-21c-.414 0-.75.308-.75.688 0 .38.336.688.75.688h2.25zm15 0v13.062c0 .547-.237 1.072-.66 1.458a2.355 2.355 0 01-1.59.605h-9c-.597 0-1.17-.218-1.59-.605a1.977 1.977 0 01-.66-1.458V4.812h13.5zm-10.5-2.75h7.5c.414 0 .75-.309.75-.688 0-.38-.336-.688-.75-.688h-7.5c-.414 0-.75.308-.75.688 0 .38.336.688.75.688z" fill="#8a8a8a"/><path fill-rule="evenodd" clip-rule="evenodd" d="M9 8.25v8.25c0 .38.336.688.75.688s.75-.308.75-.688V8.25c0-.38-.336-.688-.75-.688S9 7.87 9 8.25zm4.5 0v8.25c0 .38.336.688.75.688s.75-.308.75-.688V8.25c0-.38-.336-.688-.75-.688s-.75.308-.75.688z" fill="#8a8a8a"/></svg>
